dist/svg/key-up-o.svg

<!-- Generated by Trend Micro Style Portal -->
<svg version="1.1" xmlns="http://www.w3.org/2000/svg" width="16" height="16" viewBox="0 0 16 16">
  <title>key-up-o</title>
  <path fill="rgb(34,34,34)" d="M12 12l4 4h-8zM14 1h-5c-0.552 0.001-0.999 0.448-1 1v4.414l-2.586 2.586h-1.414v2h-2v1.414l-1 1v1.586h1.586l7-7h4.414c0.552-0.001 0.999-0.448 1-1v-5c-0.001-0.552-0.448-0.999-1-1h-0zM14 0c1.105 0 2 0.895 2 2v0 5c0 1.105-0.895 2-2 2v0h-4l-7 7h-3v-3l1-1v-2h2v-2h2l2-2v-4c0-1.105 0.895-2 2-2v0zM12.5 3c-0.276 0-0.5 0.224-0.5 0.5s0.224 0.5 0.5 0.5c0.276 0 0.5-0.224 0.5-0.5v0c-0-0.276-0.224-0.5-0.5-0.5h-0zM12.5 2c0.828 0 1.5 0.672 1.5 1.5s-0.672 1.5-1.5 1.5c-0.828 0-1.5-0.672-1.5-1.5v0c0-0.828 0.672-1.5 1.5-1.5v0z"></path>
</svg>

<svg width="16" height="16" viewBox="0 0 16 16" fill="rgb(34, 34, 34)" xmlns="http://www.w3.org/2000/svg"><title>key-up-o</title><path d="M12 12L16 16H8L12 12ZM14 1H9C8.448 1.001 8.001 1.448 8 2V6.414L5.414 9H4V11H2V12.414L1 13.414V15H2.586L9.586 8H14C14.552 7.999 14.999 7.552 15 7V2C14.999 1.448 14.552 1.001 14 1ZM14 0C15.105 0 16 0.895 16 2V7C16 8.105 15.105 9 14 9H10L3 16H0V13L1 12V10H3V8H5L7 6V2C7 0.895 7.895 0 9 0H14ZM12.5 3C12.224 3 12 3.224 12 3.5C12 3.776 12.224 4 12.5 4C12.776 4 13 3.776 13 3.5C13 3.224 12.776 3 12.5 3ZM12.5 2C13.328 2 14 2.672 14 3.5C14 4.328 13.328 5 12.5 5C11.672 5 11 4.328 11 3.5C11 2.672 11.672 2 12.5 2Z" fill="rgb(34, 34, 34)" fill-opacity="1.00"/></svg>
